packages/kaspersky-hexa-ui-icons/src/iconsSVGs/16x12/FlagUz.svg

<svg width="16" height="12" viewBox="0 0 16 12" fill="none" xmlns="http://www.w3.org/2000/svg">
<g clip-path="url(#clip0_41818_3919)">
<rect x="0.25" y="0.25" width="15.5" height="11.5" rx="1.75" fill="white" stroke="#F5F5F5" stroke-width="0.5"/>
<mask id="mask0_41818_3919" style="mask-type:luminance" maskUnits="userSpaceOnUse" x="0" y="0" width="16" height="12">
<rect x="0.25" y="0.25" width="15.5" height="11.5" rx="1.75" fill="white" stroke="white" stroke-width="0.5"/>
</mask>
<g mask="url(#mask0_41818_3919)">
<path fill-rule="evenodd" clip-rule="evenodd" d="M0 4H16V0H0V4Z" fill="#04AAC8"/>
<path fill-rule="evenodd" clip-rule="evenodd" d="M0 12H16V8H0V12Z" fill="#23C840"/>
<path d="M2.66663 0.800125C2.90204 0.800125 3.12055 0.875137 3.30237 1.00325C3.28109 1.00176 3.25955 1.00032 3.23792 1.00032C2.71199 1.0004 2.28577 1.44808 2.28577 2.00032C2.28593 2.55241 2.7121 3.00024 3.23792 3.00032C3.25991 3.00032 3.28172 2.99698 3.30334 2.99544C3.12128 3.1241 2.90259 3.19954 2.66663 3.19954C2.03555 3.19954 1.52422 2.66291 1.52405 2.00032C1.52405 1.33758 2.03544 0.800125 2.66663 0.800125ZM4.19006 2.39973C4.40046 2.39973 4.57092 2.57921 4.57092 2.80013C4.57086 3.02098 4.40042 3.19954 4.19006 3.19954C3.97988 3.19933 3.80927 3.02085 3.8092 2.80013C3.8092 2.57934 3.97984 2.39995 4.19006 2.39973ZM5.71448 2.39973C5.92476 2.39987 6.09534 2.57929 6.09534 2.80013C6.09527 3.0209 5.92472 3.19941 5.71448 3.19954C5.50412 3.19954 5.33369 3.02098 5.33362 2.80013C5.33362 2.57921 5.50408 2.39973 5.71448 2.39973ZM7.23792 2.39973C7.44831 2.39973 7.61877 2.57921 7.61877 2.80013C7.61871 3.02098 7.44827 3.19954 7.23792 3.19954C7.02763 3.19946 6.85712 3.02093 6.85706 2.80013C6.85706 2.57926 7.02759 2.39981 7.23792 2.39973ZM5.71448 0.800125C5.92462 0.800257 6.0951 0.978916 6.09534 1.19954C6.09534 1.42037 5.92476 1.5998 5.71448 1.59993C5.50408 1.59993 5.33362 1.42045 5.33362 1.19954C5.33385 0.978835 5.50423 0.800125 5.71448 0.800125ZM7.23792 0.800125C7.44816 0.800125 7.61854 0.978835 7.61877 1.19954C7.61877 1.42045 7.44831 1.59993 7.23792 1.59993C7.02759 1.59985 6.85706 1.4204 6.85706 1.19954C6.85729 0.978883 7.02773 0.800204 7.23792 0.800125Z" fill="white"/>
</g>
</g>
<defs>
<clipPath id="clip0_41818_3919">
<rect width="16" height="12" fill="white"/>
</clipPath>
</defs>
</svg>

<svg xmlns="http://www.w3.org/2000/svg" width="16" height="12" fill="none" viewBox="0 0 16 12"><g clip-path="url(#a)"><rect width="16" height="12" fill="#fff" stroke="#f5f5f5" rx="2"/><mask id="b" width="16" height="12" x="0" y="0" maskUnits="userSpaceOnUse" style="mask-type:luminance"><rect width="16" height="12" fill="#fff" stroke="#fff" rx="2"/></mask><g mask="url(#b)"><path fill="#04aac8" fill-rule="evenodd" d="M0 4h16V0H0z" clip-rule="evenodd"/><path fill="#23c840" fill-rule="evenodd" d="M0 12h16V8H0z" clip-rule="evenodd"/><path fill="#fff" d="M2.6666.8001c.2354 0 .454.075.6358.2031a1 1 0 0 0-.0645-.0029c-.526.0001-.9521.4478-.9521 1 .0001.5521.4263 1 .9521 1 .022 0 .0438-.0033.0654-.0049a1.1 1.1 0 0 1-.6367.2041c-.631 0-1.1424-.5366-1.1425-1.1992S2.0353.8001 2.6666.8001m1.5235 1.5996c.2104 0 .3808.1795.3808.4004s-.1705.3994-.3808.3994c-.2102-.0002-.3808-.1787-.3809-.3994 0-.2208.1706-.4001.3809-.4004m1.5244 0c.2103.0002.3808.1796.3808.4004s-.1706.3993-.3808.3994c-.2104 0-.3808-.1785-.3809-.3994s.1705-.4004.3809-.4004m1.5234 0c.2104 0 .3809.1795.3809.4004s-.1705.3994-.3809.3994c-.2103 0-.3808-.1786-.3808-.3994s.1705-.4003.3808-.4004M5.7145.8001c.2101.0002.3806.1788.3808.3994 0 .2209-.1705.4003-.3808.4004s-.3809-.1795-.3809-.4004c.0003-.2207.1706-.3994.3809-.3994m1.5234 0c.2103 0 .3806.1787.3809.3994 0 .221-.1705.4004-.3809.4004-.2103 0-.3808-.1795-.3808-.4004.0002-.2206.1706-.3993.3808-.3994"/></g></g><defs><clipPath id="a"><path fill="#fff" d="M0 0h16v12H0z"/></clipPath></defs></svg>
